X: 3038
T: Minuet
%R: minuet, waltz
B: Henry Playford "Apollo's Banquet", London 1687 (5th Edition)
F: https://archive.org/details/apollosbanquetco01rugg
Z: 2017 John Chambers <jc:trillian.mit.edu>
M: 3/4
L: 1/8
K: C
% - - - - - - - - - -
|:\
g3 f e2 | f2 d3 c/d/ | e2 c2 g2 | a2 f4 |\
ed ef ef | g3 f e2 | g2 d3 c/d/ | e2 c2 g2 |\
a2 f4 | e6 ::
e3 f g2 | d2 e4 | c2 A2 d2 | B2 G2 c2 |\
d2 e3 f | e4 d2 | e3 f g2 | d2 e4 |\
c2 A2 d2 | B2 G2 c2 | d2 d3 c | c6 |]
% - - - - - - - - - -

%%sep 1 1 500
%%sep 1 1 500

